app/dist/common/images/codorus-valley-bancorp.svg

<svg height="18" viewBox="0 0 18 18" width="18" xmlns="http://www.w3.org/2000/svg" xmlns:xlink="http://www.w3.org/1999/xlink"><linearGradient id="a" gradientUnits="userSpaceOnUse" x1=".16" x2="10.99" y1="6.5" y2="7.17"><stop offset=".02" stop-color="#b70719" stop-opacity="0"/><stop offset=".4" stop-color="#b70719" stop-opacity=".87"/><stop offset="1" stop-color="#b60b1d" stop-opacity="0"/></linearGradient><linearGradient id="b" gradientUnits="userSpaceOnUse" x1="9.97" x2="17.97" y1="5.85" y2="7.81"><stop offset="0" stop-color="#b70719" stop-opacity=".88"/><stop offset="1" stop-color="#b70719" stop-opacity="0"/></linearGradient><path d="m0 0h18v18h-18z" fill="#f0f3fa"/><path d="m5.74 9c-.96 0-1.74.78-1.74 1.73v1.54c0 .95.78 1.73 1.74 1.73h2.26v-1h-1.83c-.83 0-1.17-.47-1.17-1.04v-.92c0-.57.34-1.04 1.17-1.04h1.83v-1zm5.03 5-2.12-5h1.22l1.46 3.7 1.43-3.7h1.24l-2.16 5z" fill="#808082"/><path d="m5.92 5.34a10.5 10.5 0 0 0 -3.92-.27v2.93h3.92c.68-.42 2.92-1.36 3.95-1.7-.75-.14-2.6-.52-3.95-.96z" fill="url(#a)"/><path d="m13.97 5.47c-2.9-.61-5.59-.26-6.57 0l2.67.7z" fill="#b70719" fill-opacity=".8"/><path d="m16 8v-2.1c-3.56-.36-7.83 1.25-9.53 2.1z" fill="url(#b)"/></svg>

<!-- by TradingView --><svg width="18" height="18" viewBox="0 0 18 18" xmlns="http://www.w3.org/2000/svg"><path fill="#F0F3FA" d="M0 0h18v18H0z"/><path d="M5.74 9C4.78 9 4 9.78 4 10.73v1.54c0 .95.78 1.73 1.74 1.73H8v-1H6.17C5.34 13 5 12.53 5 11.96v-.92c0-.57.34-1.04 1.17-1.04H8V9H5.74ZM10.77 14 8.65 9h1.22l1.46 3.7L12.76 9H14l-2.16 5h-1.07Z" fill="#808082"/><path d="M5.92 5.34A10.5 10.5 0 0 0 2 5.07V8h3.92c.68-.42 2.92-1.36 3.95-1.7-.75-.14-2.6-.52-3.95-.96Z" fill="url(#asqqvp2fl)"/><path d="M13.97 5.47c-2.9-.61-5.59-.26-6.57 0l2.67.7 3.9-.7Z" fill="#B70719" fill-opacity=".8"/><path d="M16 8V5.9C12.44 5.54 8.17 7.15 6.47 8H16Z" fill="url(#bsqqvp2fl)"/><defs><linearGradient id="asqqvp2fl" x1=".16" y1="6.5" x2="10.99" y2="7.17" gradientUnits="userSpaceOnUse"><stop offset=".02" stop-color="#B70719" stop-opacity="0"/><stop offset=".4" stop-color="#B70719" stop-opacity=".87"/><stop offset="1" stop-color="#B60B1D" stop-opacity="0"/></linearGradient><linearGradient id="bsqqvp2fl" x1="9.97" y1="5.85" x2="17.97" y2="7.81" gradientUnits="userSpaceOnUse"><stop stop-color="#B70719" stop-opacity=".88"/><stop offset="1" stop-color="#B70719" stop-opacity="0"/></linearGradient></defs></svg>
